packages/ui-icons/src/Service-logos/24/Spotify.svg

<svg viewBox="0 0 32 32" fill="none" xmlns="http://www.w3.org/2000/svg">
<path d="M15.9999 4C9.37269 4 4 9.37255 4 15.9998C4 22.6277 9.37269 28 15.9999 28C22.6275 28 28 22.6277 28 15.9998C28 9.37255 22.6275 4 15.9999 4Z" fill="#65D36E"/>
<path d="M21.2395 21.0473C21.0271 21.3957 20.5736 21.5048 20.2266 21.2925C17.4512 19.5962 13.9578 19.2132 9.84368 20.1528C9.44723 20.2437 9.05205 19.9953 8.96172 19.599C8.87083 19.2026 9.11838 18.8074 9.51568 18.7169C14.0179 17.6878 17.8798 18.1306 20.9951 20.0343C21.3424 20.2464 21.4518 20.7001 21.2395 21.0473Z" fill="white"/>
<path d="M22.6857 17.829C22.4184 18.2627 21.8513 18.3987 21.4182 18.1324C18.2421 16.1801 13.3986 15.6144 9.6409 16.7551C9.1537 16.9023 8.63898 16.6276 8.49093 16.1412C8.34415 15.654 8.61894 15.1402 9.10543 14.992C13.398 13.6894 18.7345 14.3202 22.3825 16.5622C22.8157 16.8289 22.952 17.3963 22.6857 17.829Z" fill="white"/>
<path d="M22.8105 14.4779C19.0007 12.2154 12.7165 12.0074 9.07958 13.1112C8.49543 13.2885 7.87782 12.9588 7.70098 12.3747C7.52399 11.7903 7.85326 11.1731 8.4377 10.9956C12.6128 9.72828 19.5529 9.973 23.9388 12.5766C24.4643 12.8885 24.6365 13.5669 24.3251 14.0914C24.0135 14.6167 23.3345 14.7898 22.8105 14.4779Z" fill="white"/>
</svg>

<svg viewBox="0 0 32 32" fill="none" xmlns="http://www.w3.org/2000/svg"><path d="M16 4C9.373 4 4 9.373 4 16c0 6.628 5.373 12 12 12 6.628 0 12-5.372 12-12 0-6.627-5.372-12-12-12Z" fill="#65D36E"/><path d="M21.24 21.047a.736.736 0 0 1-1.013.245c-2.776-1.696-6.27-2.079-10.383-1.14a.736.736 0 1 1-.328-1.435c4.502-1.03 8.364-.586 11.48 1.317a.737.737 0 0 1 .244 1.013ZM22.686 17.829a.922.922 0 0 1-1.268.303c-3.176-1.952-8.02-2.518-11.777-1.377a.923.923 0 0 1-1.15-.614.923.923 0 0 1 .614-1.149c4.293-1.303 9.63-.672 13.277 1.57.434.267.57.834.304 1.267ZM22.81 14.478C19 12.215 12.718 12.008 9.08 13.11a1.105 1.105 0 1 1-.642-2.115c4.175-1.268 11.115-1.023 15.5 1.58a1.105 1.105 0 0 1-1.127 1.902Z" fill="#fff"/></svg>
